X:1
T:8 Lieder und Gesänge, Op.58
T:Vorüber
T:7. Vorüber
T:Johannes Brahms
T:Friedrich Hebbel
T:8 Lieder und Gesänge, Op.58
T:Creative Commons copyright waiver (CC0 1.0 Universal) 
T:Creative Commons copyright waiver (CC0 1.0 Universal) 
T:Creative Commons copyright waiver (CC0 1.0 Universal) 
C:Johannes Brahms
Z:Friedrich Hebbel
Z:Creative Commons copyright waiver (CC0 1.0 Universal)
Z:
L:1/8
M:4/4
K:F
V:1 treble nm="Singstimme\nVoice"
V:1
 z8 | z4 z2 A2 | (c3 G) A2 c2 | (e3 g) f2 A2 | d3 e c2 z2 | z4 z2 A2 | G6 d2 | (f3 c) B2 G2 | %8
w: |Ich|leg- * te mich|un- * ter den|Lin- den- baum,|in|dem die|Nach- * ti- gall|
 A4 z2 d2 | a4 z2 ^c2 | f3 _e _d3 =c | f4- (3f2 _e2 _d2 | c4 z2 c2 | _d3 _e c3 _a | %14
w: schlug; sie|sang, sie|sang mich in den|sü- * sse- sten|Traum, sie|sang mich in den|
 (_a3 _g) (f_e) (_d_c) | B4 z2 _g2 | f2 _A2 z2 e2 | f4 f2 _a2 | (g3 f) e2 =d2 | c4 z4 | z8 | %21
w: sü- * sse- * sten *|Traum, der|währ- te, der|währ- te auch|lan- * ge ge-|nug.||
 z2 z c c2 c c | e2 c2 z2 c2 | c6 =B2 | A4 z2 A2 | c4- c=B cd | d3 _A c2 =B2 | =A4 z2 ^f2 | %28
w: Denn nun ich er-|wa- che, nun|ist sie|fort, und|welk * * be- *|deckt * mich das|Laub, und|
 (e4- ed) (e=f) | A4 c3 =B | A4 z2 A2 | (_B4- Bd) c B | c4 c3 c | (c4- c_e) (_dc) | _d4 z d2 _c | %35
w: welk _ _ be- *|deckt mich das|Laub, doch|lei- * * der noch|nicht wie am|dunk- * * lern *|Ort, wie am|
 __B3 _G _A3 F | (F_A) (cf) =g2 c2 | z2 f2 _e2 _d2 | _d2 c2 z2 =E2 | F4 z4 | z8 | z8 | z8 |] %43
w: dunk- lern Ort, ver-|glüh- * te * A- sche,|ver- glüh- te|A- sche der|Staub.||||

